packages/sources/assets/src/assets/maestro-subtext.svg

<svg width="58" height="40" viewBox="0 0 58 40" fill="none" xmlns="http://www.w3.org/2000/svg">
<rect x="0.5" y="0.5" width="57" height="39" rx="3.5" fill="white" stroke="#F3F3F3"/>
<path d="M34.2935 26.0848H24.3776V8.40381H34.2935V26.0848Z" fill="#6C6BBD"/>
<path d="M25.007 17.2448C25.007 13.6581 26.6996 10.4632 29.3352 8.40427C27.4078 6.89868 24.9753 6.00005 22.3317 6.00005C16.0732 6.00005 11 11.0344 11 17.2448C11 23.4551 16.0732 28.4895 22.3317 28.4895C24.9753 28.4895 27.4078 27.5909 29.3352 26.0853C26.6996 24.0264 25.007 20.8314 25.007 17.2448Z" fill="#EB001B"/>
<path d="M47.6711 17.2448C47.6711 23.4551 42.5979 28.4895 36.3394 28.4895C33.6958 28.4895 31.2633 27.5909 29.3352 26.0853C31.9716 24.0264 33.6641 20.8314 33.6641 17.2448C33.6641 13.6581 31.9716 10.4632 29.3352 8.40427C31.2633 6.89868 33.6958 6.00005 36.3394 6.00005C42.5979 6.00005 47.6711 11.0344 47.6711 17.2448Z" fill="#0099DF"/>
<path d="M37.6485 31.081C37.7804 31.081 37.9699 31.106 38.1147 31.1625L37.913 31.7744C37.7746 31.718 37.6363 31.6994 37.5037 31.6994C37.0757 31.6994 36.8617 31.9739 36.8617 32.4672V34.1415H36.2068V31.156H36.8552V31.5185C37.0253 31.2561 37.271 31.081 37.6485 31.081Z" fill="#231F20"/>
<path d="M35.229 31.7494H34.159V33.0984C34.159 33.398 34.2657 33.5982 34.5935 33.5982C34.7636 33.5982 34.9775 33.5417 35.1721 33.4294L35.3609 33.9849C35.1534 34.1286 34.8262 34.2166 34.5431 34.2166C33.7685 34.2166 33.4983 33.8041 33.4983 33.1106V31.7494H32.8873V31.156H33.4983V30.2503H34.159V31.156H35.229V31.7494Z" fill="#231F20"/>
<path fill-rule="evenodd" clip-rule="evenodd" d="M27.662 31.0809C28.5058 31.0809 29.0851 31.7179 29.0916 32.6487C29.0916 32.7352 29.0852 32.8154 29.0788 32.8962L29.0786 32.8982H26.8442C26.9386 33.4351 27.3227 33.6289 27.7442 33.6289C28.0461 33.6289 28.3674 33.5166 28.6189 33.3164L28.9403 33.7976C28.5749 34.1035 28.1599 34.2158 27.7067 34.2158C26.8061 34.2158 26.1641 33.5974 26.1641 32.6487C26.1641 31.7179 26.7808 31.0809 27.662 31.0809ZM27.6498 31.6614C27.1836 31.6614 26.9199 31.9553 26.85 32.3863H28.4114C28.3422 31.9238 28.0713 31.6614 27.6498 31.6614Z" fill="#231F20"/>
<path d="M31.9679 31.9181C31.7856 31.8052 31.4145 31.6615 31.0305 31.6615C30.6717 31.6615 30.4577 31.793 30.4577 32.0118C30.4577 32.2112 30.6839 32.2677 30.9671 32.3049L31.2755 32.3485C31.9304 32.4429 32.3267 32.7174 32.3267 33.2421C32.3267 33.8105 31.8231 34.2166 30.9548 34.2166C30.4634 34.2166 30.0102 34.0914 29.6514 33.8291L29.9598 33.3229C30.1803 33.4916 30.5081 33.6353 30.9613 33.6353C31.4081 33.6353 31.6473 33.5045 31.6473 33.2729C31.6473 33.1049 31.4772 33.0105 31.1184 32.9612L30.81 32.9176C30.1363 32.8232 29.771 32.5237 29.771 32.0368C29.771 31.4434 30.2624 31.081 31.024 31.081C31.5024 31.081 31.9369 31.1875 32.2511 31.3934L31.9679 31.9181Z" fill="#231F20"/>
<path fill-rule="evenodd" clip-rule="evenodd" d="M40.6899 31.2018C40.491 31.121 40.2749 31.0809 40.0414 31.0809C39.808 31.0809 39.5918 31.121 39.3929 31.2018C39.1941 31.2818 39.0233 31.3926 38.8792 31.5335C38.7351 31.6743 38.622 31.8409 38.5398 32.0325C38.4577 32.2248 38.4166 32.4335 38.4166 32.6587C38.4166 32.8839 38.4577 33.0927 38.5398 33.285C38.622 33.4766 38.7351 33.6439 38.8792 33.7847C39.0233 33.9255 39.1941 34.0356 39.3929 34.1164C39.5918 34.1965 39.808 34.2365 40.0414 34.2365C40.2749 34.2365 40.491 34.1965 40.6899 34.1164C40.8888 34.0356 41.061 33.9255 41.2058 33.7847C41.3513 33.6439 41.4645 33.4766 41.5466 33.285C41.6287 33.0927 41.6698 32.8839 41.6698 32.6587C41.6698 32.4335 41.6287 32.2248 41.5466 32.0325C41.4645 31.8409 41.3513 31.6743 41.2058 31.5335C41.061 31.3926 40.8888 31.2818 40.6899 31.2018ZM39.666 31.768C39.782 31.7215 39.9067 31.6979 40.0414 31.6979C40.1762 31.6979 40.3015 31.7215 40.4168 31.768C40.5328 31.8151 40.6337 31.8809 40.718 31.9653C40.8037 32.0496 40.87 32.1511 40.919 32.2691C40.9673 32.3871 40.9911 32.5172 40.9911 32.6587C40.9911 32.801 40.9673 32.9304 40.919 33.0483C40.87 33.1663 40.8037 33.2678 40.718 33.3522C40.6337 33.4365 40.5328 33.5023 40.4168 33.5495C40.3015 33.5967 40.1762 33.6196 40.0414 33.6196C39.9067 33.6196 39.782 33.5967 39.666 33.5495C39.5507 33.5023 39.4506 33.4365 39.3663 33.3522C39.282 33.2678 39.2157 33.1663 39.1674 33.0483C39.1191 32.9304 39.0954 32.801 39.0954 32.6587C39.0954 32.5172 39.1191 32.3871 39.1674 32.2691C39.2157 32.1511 39.282 32.0496 39.3663 31.9653C39.4506 31.8809 39.5507 31.8151 39.666 31.768Z" fill="#231F20"/>
<path fill-rule="evenodd" clip-rule="evenodd" d="M25.4616 31.156V32.6487V34.1414H24.8073V33.779C24.5991 34.0478 24.2849 34.2165 23.8569 34.2165C23.0132 34.2165 22.3525 33.5602 22.3525 32.6487C22.3525 31.7365 23.0132 31.0809 23.8569 31.0809C24.2849 31.0809 24.5991 31.2496 24.8073 31.5185V31.156H25.4616ZM23.9384 31.6929C23.372 31.6929 23.0255 32.124 23.0255 32.6487C23.0255 33.1735 23.372 33.6038 23.9384 33.6038C24.4795 33.6038 24.8448 33.192 24.8448 32.6487C24.8448 32.1054 24.4795 31.6929 23.9384 31.6929Z" fill="#231F20"/>
<path d="M21.7732 34.1415V32.2677C21.7732 31.5621 21.32 31.0874 20.5901 31.081C20.206 31.0745 19.809 31.1932 19.5323 31.6121C19.3248 31.2811 18.997 31.081 18.5373 31.081C18.2167 31.081 17.9018 31.1746 17.6561 31.5242V31.156H17.0018V34.1415H17.6626V32.4865C17.6626 31.9682 17.9522 31.6929 18.3989 31.6929C18.8334 31.6929 19.0539 31.9739 19.0539 32.48V34.1415H19.7146V32.4865C19.7146 31.9682 20.0173 31.6929 20.451 31.6929C20.8985 31.6929 21.1125 31.9739 21.1125 32.48V34.1415H21.7732V34.1415Z" fill="#231F20"/>
</svg>

<svg width="58" height="40" fill="none" xmlns="http://www.w3.org/2000/svg"><rect x=".5" y=".5" width="57" height="39" rx="3.5" fill="#fff" stroke="#F3F3F3"/><path d="M34.294 26.085h-9.916V8.404h9.916v17.68Z" fill="#6C6BBD"/><path d="M25.007 17.245c0-3.587 1.693-6.782 4.328-8.84A11.34 11.34 0 0 0 22.332 6C16.073 6 11 11.034 11 17.245c0 6.21 5.073 11.244 11.332 11.244a11.34 11.34 0 0 0 7.003-2.404c-2.635-2.059-4.328-5.254-4.328-8.84" fill="#EB001B"/><path d="M47.671 17.245c0 6.21-5.073 11.244-11.332 11.244a11.34 11.34 0 0 1-7.004-2.404c2.637-2.059 4.33-5.254 4.33-8.84 0-3.587-1.693-6.782-4.33-8.84A11.343 11.343 0 0 1 36.34 6c6.259 0 11.332 5.034 11.332 11.245" fill="#0099DF"/><path d="M37.648 31.081c.132 0 .322.025.467.082l-.202.611a1.07 1.07 0 0 0-.41-.075c-.427 0-.641.275-.641.768v1.675h-.655v-2.986h.648v.363a.89.89 0 0 1 .794-.438Zm-2.419.669h-1.07v1.348c0 .3.107.5.434.5.17 0 .384-.056.58-.169l.188.556c-.208.144-.535.232-.818.232-.774 0-1.045-.413-1.045-1.106v-1.362h-.61v-.593h.61v-.906h.661v.906h1.07v.593Z" fill="#231F20"/><path fill-rule="evenodd" clip-rule="evenodd" d="M27.662 31.08c.844 0 1.423.638 1.43 1.569 0 .086-.007.166-.013.247v.002h-2.235c.095.537.479.73.9.73.302 0 .623-.111.875-.312l.321.482c-.365.305-.78.418-1.233.418-.9 0-1.543-.619-1.543-1.567 0-.931.617-1.568 1.498-1.568Zm-.012.581c-.466 0-.73.294-.8.725h1.561c-.069-.462-.34-.725-.761-.725Z" fill="#231F20"/><path d="M31.968 31.918a1.942 1.942 0 0 0-.938-.256c-.358 0-.572.131-.572.35 0 .2.226.256.51.293l.308.044c.654.094 1.05.368 1.05.893 0 .569-.503.975-1.371.975-.492 0-.945-.126-1.304-.388l.309-.506c.22.169.548.312 1.001.312.447 0 .686-.13.686-.362 0-.168-.17-.263-.529-.312l-.308-.043c-.674-.095-1.039-.394-1.039-.881 0-.594.491-.956 1.253-.956.478 0 .913.107 1.227.312l-.283.525Z" fill="#231F20"/><path fill-rule="evenodd" clip-rule="evenodd" d="M40.69 31.202a1.706 1.706 0 0 0-.649-.121c-.233 0-.45.04-.648.12a1.537 1.537 0 0 0-.976 1.457 1.54 1.54 0 0 0 .463 1.126c.143.142.314.252.513.332.199.08.415.12.648.12.234 0 .45-.04.649-.12a1.52 1.52 0 0 0 .857-.831c.082-.192.123-.401.123-.626 0-.225-.041-.434-.123-.627a1.518 1.518 0 0 0-.857-.83Zm-1.024.566a.998.998 0 0 1 .375-.07.99.99 0 0 1 .376.07.899.899 0 0 1 .502.501c.048.118.072.248.072.39 0 .142-.024.271-.072.39a.91.91 0 0 1-.878.57.985.985 0 0 1-.375-.07.902.902 0 0 1-.499-.5 1.017 1.017 0 0 1-.072-.39c0-.142.024-.272.072-.39a.9.9 0 0 1 .499-.501Zm-14.204-.612v2.985h-.655v-.362c-.208.269-.522.438-.95.438-.844 0-1.505-.657-1.505-1.568 0-.913.661-1.568 1.505-1.568.428 0 .742.169.95.438v-.363h.655Zm-1.524.537c-.566 0-.912.431-.912.956 0 .524.346.955.912.955.542 0 .907-.412.907-.955 0-.544-.365-.956-.907-.956Z" fill="#231F20"/><path d="M21.773 34.142v-1.874c0-.706-.453-1.18-1.183-1.187-.384-.006-.781.112-1.058.531-.207-.33-.535-.531-.995-.531-.32 0-.635.094-.88.443v-.368h-.655v2.986h.66v-1.656c0-.518.29-.793.737-.793.434 0 .655.28.655.787v1.662h.66v-1.656c0-.518.303-.793.737-.793.447 0 .662.28.662.787v1.662h.66Z" fill="#231F20"/></svg>
